static/WhatsApp.svg

<svg width="360" height="362" viewBox="0 0 360 362" fill="none" xmlns="http://www.w3.org/2000/svg">
<path fill-rule="evenodd" clip-rule="evenodd" d="M307.546 52.5655C273.709 18.685 228.706 0.0171895 180.756 0C81.951 0 1.53846 80.404 1.50408 179.235C1.48689 210.829 9.74646 241.667 25.4319 268.844L0 361.736L95.0236 336.811C121.203 351.096 150.683 358.616 180.679 358.625H180.756C279.544 358.625 359.966 278.212 360 179.381C360.017 131.483 341.392 86.4547 307.546 52.5741V52.5655ZM180.756 328.354H180.696C153.966 328.346 127.744 321.16 104.865 307.589L99.4242 304.358L43.034 319.149L58.0834 264.168L54.5423 258.53C39.6304 234.809 31.749 207.391 31.7662 179.244C31.8006 97.1036 98.6334 30.2707 180.817 30.2707C220.61 30.2879 258.015 45.8015 286.145 73.9665C314.276 102.123 329.755 139.562 329.738 179.364C329.703 261.513 262.871 328.346 180.756 328.346V328.354ZM262.475 216.777C257.997 214.534 235.978 203.704 231.869 202.209C227.761 200.713 224.779 199.966 221.796 204.452C218.814 208.939 210.228 219.029 207.615 222.011C205.002 225.002 202.389 225.372 197.911 223.128C193.434 220.885 179.003 216.158 161.891 200.902C148.578 189.024 139.587 174.362 136.975 169.875C134.362 165.389 136.7 162.965 138.934 160.739C140.945 158.728 143.412 155.505 145.655 152.892C147.899 150.279 148.638 148.406 150.133 145.423C151.629 142.432 150.881 139.82 149.764 137.576C148.646 135.333 139.691 113.287 135.952 104.323C132.316 95.5909 128.621 96.777 125.879 96.6309C123.266 96.5019 120.284 96.4762 117.293 96.4762C114.302 96.4762 109.454 97.5935 105.346 102.08C101.238 106.566 89.6691 117.404 89.6691 139.441C89.6691 161.478 105.716 182.785 107.959 185.776C110.202 188.767 139.544 234.001 184.469 253.408C195.153 258.023 203.498 260.782 210.004 262.845C220.731 266.257 230.494 265.776 238.212 264.624C246.816 263.335 264.71 253.786 268.44 243.326C272.17 232.866 272.17 223.893 271.053 222.028C269.936 220.163 266.945 219.037 262.467 216.794L262.475 216.777Z" fill="#25D366"/>
</svg>

<svg xmlns="http://www.w3.org/2000/svg" width="360" height="362" fill="none"><path fill="#25D366" fill-rule="evenodd" d="M307.546 52.566C273.709 18.684 228.706.017 180.756 0 81.951 0 1.538 80.404 1.504 179.235c-.017 31.594 8.242 62.432 23.928 89.609L0 361.736l95.024-24.925c26.179 14.285 55.659 21.805 85.655 21.814h.077c98.788 0 179.21-80.413 179.244-179.244.017-47.898-18.608-92.926-52.454-126.807v-.008Zm-126.79 275.788h-.06c-26.73-.008-52.952-7.194-75.831-20.765l-5.44-3.231-56.391 14.791 15.05-54.981-3.542-5.638c-14.912-23.721-22.793-51.139-22.776-79.286.035-82.14 66.867-148.973 149.051-148.973 39.793.017 77.198 15.53 105.328 43.695 28.131 28.157 43.61 65.596 43.593 105.398-.035 82.149-66.867 148.982-148.982 148.982v.008Zm81.719-111.577c-4.478-2.243-26.497-13.073-30.606-14.568-4.108-1.496-7.09-2.243-10.073 2.243-2.982 4.487-11.568 14.577-14.181 17.559-2.613 2.991-5.226 3.361-9.704 1.117-4.477-2.243-18.908-6.97-36.02-22.226-13.313-11.878-22.304-26.54-24.916-31.027-2.613-4.486-.275-6.91 1.959-9.136 2.011-2.011 4.478-5.234 6.721-7.847 2.244-2.613 2.983-4.486 4.478-7.469 1.496-2.991.748-5.603-.369-7.847-1.118-2.243-10.073-24.289-13.812-33.253-3.636-8.732-7.331-7.546-10.073-7.692-2.613-.13-5.595-.155-8.586-.155-2.991 0-7.839 1.118-11.947 5.604-4.108 4.486-15.677 15.324-15.677 37.361s16.047 43.344 18.29 46.335c2.243 2.991 31.585 48.225 76.51 67.632 10.684 4.615 19.029 7.374 25.535 9.437 10.727 3.412 20.49 2.931 28.208 1.779 8.604-1.289 26.498-10.838 30.228-21.298 3.73-10.46 3.73-19.433 2.613-21.298-1.117-1.865-4.108-2.991-8.586-5.234l.008-.017Z" clip-rule="evenodd"/></svg>
